web/ui/src/components/theme/menu/svgs/secret-key.svg

<svg height="25" viewBox="0 0 24 25" width="24" xmlns="http://www.w3.org/2000/svg"><g fill="none" fill-rule="evenodd" transform="translate(0 1)"><path d="m0 0h24v24h-24z" fill="#000" fill-rule="nonzero" opacity="0"/><g fill="#082340"><path d="m14.7331177 7.71118991c-.4724101.47281324-.7331177 1.10323089-.7331177 1.77698976 0 .66981873.2607076 1.30023643.7331177 1.77501973.4704499.4747833 1.0977164.7368006 1.7681074.7368006.6664707 0 1.2937372-.2620173 1.7681074-.7368006.9742233-.9791174.9742233-2.57289207 0-3.55003943-.9467803-.95153664-2.5933548-.94956659-3.5362148-.00197006zm2.6247182 2.63790389c-.4586886.4590228-1.2584534.4570528-1.7151818 0-.2293443-.2304965-.3547976-.53585503-.3547976-.86091413s.1274135-.63238771.3547976-.86091411c.2293443-.23049645.5331765-.35657998.8566108-.35657998s.6292267.12805358.8566108.35657998c.4743703.4747833.4743703 1.24704492.0019602 1.72182824z"/><path d="m20.9728756 5.02688355c-2.703158-2.70348801-7.0977429-2.70153462-9.8009009 0-1.91213268 1.91431955-2.52932771 4.70961676-1.6250198 7.23143975l-.80079103.7989354h-2.08596295c-.35351994 0-.64063282.2871479-.64063282.640711v1.6115445h-1.61330094c-.35351994 0-.64063282.287148-.64063282.6407111v2.0901244l-.57813205.5762492c-.11914208.12111-.18750229.2832412-.18750229.4531859v3.2895042c0 .3535631.28711288.640711.64063282.640711h3.28910264c.16992395 0 .33398845-.0683686.45313053-.1875252l6.35945261-6.360229c2.519562.9024649 5.314518.2871479 7.2286038-1.6252182 2.7051112-2.7015346 2.7051112-7.09860943.0019532-9.80014405zm-.9062611 8.89377235c-1.6445513 1.6427987-4.0879405 2.1096583-6.2266385 1.1935196-.2402373-.1035295-.5214907-.0507881-.7070398.1347837l-6.46687584 6.4696187h-2.38284157v-2.3831325l.59571039-.5938297c.14843931-.1484574.20703378-.3613766.16992395-.5645289v-1.5861505h1.61134779c.35351994 0 .64063282-.2871479.64063282-.640711v-1.6115445h1.55080017c.21289322.050788.43945849-.0136738.59766355-.1718981l1.30079714-1.300956c.1855491-.1855717.2382841-.4668595.1347672-.7071262-.9179799-2.138959-.4492242-4.58264654 1.193374-6.22739863 2.2011987-2.20146748 5.7832737-2.20342087 7.9864256 0 2.2031519 2.20342086 2.2031519 5.78788653.0019531 7.98935403z"/></g></g></svg>

<?xml version="1.0" encoding="UTF-8"?>
<svg width="24px" height="25px" viewBox="0 0 24 25" version="1.1" xmlns="http://www.w3.org/2000/svg" xmlns:xlink="http://www.w3.org/1999/xlink">
    <title>项目密钥</title>
    <g id="页面-1" stroke="none" stroke-width="1" fill="none" fill-rule="evenodd">
        <g id="建木自动化-创建项目" transform="translate(-1509.000000, -20.000000)">
            <g id="项目密钥" transform="translate(1509.000000, 21.000000)">
                <rect id="矩形" fill="#000000" fill-rule="nonzero" opacity="0" x="0" y="0" width="24" height="24"></rect>
                <path d="M14.7331177,7.71118991 C14.2607076,8.18400315 14,8.8144208 14,9.48817967 C14,10.1579984 14.2607076,10.7884161 14.7331177,11.2631994 C15.2035676,11.7379827 15.8308341,12 16.5012251,12 C17.1676958,12 17.7949623,11.7379827 18.2693325,11.2631994 C19.2435558,10.284082 19.2435558,8.69030733 18.2693325,7.71315997 C17.3225522,6.76162333 15.6759777,6.76359338 14.7331177,7.71118991 L14.7331177,7.71118991 Z M17.3578359,10.3490938 C16.8991473,10.8081166 16.0993825,10.8061466 15.6426541,10.3490938 C15.4133098,10.1185973 15.2878565,9.81323877 15.2878565,9.48817967 C15.2878565,9.16312057 15.41527,8.85579196 15.6426541,8.62726556 C15.8719984,8.39676911 16.1758306,8.27068558 16.4992649,8.27068558 C16.8226992,8.27068558 17.1284916,8.39873916 17.3558757,8.62726556 C17.830246,9.10204886 17.830246,9.87431048 17.3578359,10.3490938 L17.3578359,10.3490938 Z" id="形状" fill="#082340"></path>
                <path d="M20.9728756,5.02688355 C18.2697176,2.32339554 13.8751327,2.32534893 11.1719747,5.02688355 C9.25984202,6.9412031 8.64264699,9.73650031 9.5469549,12.2583233 L8.74616387,13.0572587 L6.66020092,13.0572587 C6.30668098,13.0572587 6.0195681,13.3444066 6.0195681,13.6979697 L6.0195681,15.3095142 L4.40626716,15.3095142 C4.05274722,15.3095142 3.76563434,15.5966622 3.76563434,15.9502253 L3.76563434,18.0403497 L3.18750229,18.6165989 C3.06836021,18.7377089 3,18.8998401 3,19.0697848 L3,22.359289 C3,22.7128521 3.28711288,23 3.64063282,23 L6.92973546,23 C7.09965941,23 7.26372391,22.9316314 7.38286599,22.8124748 L13.7423186,16.4522458 C16.2618806,17.3547107 19.0568366,16.7393937 20.9709224,14.8270276 C23.6760336,12.125493 23.6760336,7.72841817 20.9728756,5.02688355 Z M20.0666145,13.9206559 C18.4220632,15.5634546 15.978674,16.0303142 13.839976,15.1141755 C13.5997387,15.010646 13.3184853,15.0633874 13.1329362,15.2489592 L6.66606036,21.7185779 L4.28321879,21.7185779 L4.28321879,19.3354454 L4.87892918,18.7416157 C5.02736849,18.5931583 5.08596296,18.3802391 5.04885313,18.1770868 L5.04885313,16.5909363 L6.66020092,16.5909363 C7.01372086,16.5909363 7.30083374,16.3037884 7.30083374,15.9502253 L7.30083374,14.3386808 L8.85163391,14.3386808 C9.06452713,14.3894688 9.2910924,14.325007 9.44929746,14.1667827 L10.7500946,12.8658267 C10.9356437,12.680255 10.9883787,12.3989672 10.8848618,12.1587005 C9.9668819,10.0197415 10.4356376,7.57605396 12.0782358,5.93130187 C14.2794345,3.72983439 17.8615095,3.727881 20.0646614,5.93130187 C22.2678133,8.13472273 22.2678133,11.7191884 20.0666145,13.9206559 Z" id="形状" fill="#082340"></path>
            </g>
        </g>
    </g>
</svg>
